/* XPM */
static char * da3_camera_xpm[] = {
"32 32 6 1",
" 	c None",
".	c #20252B",
"+	c #3B82F6",
"@	c #93C5FD",
"#	c #E5E7EB",
"$	c #111827",
"                                ",
"                                ",
"                                ",
"        .........               ",
"       .#########.              ",
"      .###########.             ",
"     .####.....####.            ",
"    .###..     ..###.           ",
"    .##.         .##.           ",
"   .##.           .##.          ",
"   .#.   +++++++   .#.          ",
"  .##.  ++@@@@@++  .##.         ",
"  .#.  ++@.....@++  .#.         ",
"  .#.  +@.     .@+  .#.         ",
"  .#.  +@.     .@+  .#.         ",
"  .#.  +@.     .@+  .#.         ",
"  .#.  ++@.....@++  .#.         ",
"  .##.  ++@@@@@++  .##.         ",
"   .#.   +++++++   .#.          ",
"   .##.           .##.          ",
"    .##.         .##.           ",
"    .###..     ..###.           ",
"     .####.....####.            ",
"      .###########.             ",
"       .#########.              ",
"        .........               ",
"                                ",
"     $$$$                       ",
"     $##$                       ",
"     $$$$                       ",
"                                ",
"                                "};
